-----BEGIN PGP SIGNATURE-----
Version: BCPG v1.70

iQIcBAEBCgAGBQJqWdplAAoJEEYxW5yCr7ufQW4P/2rq3v80K3G0IdcsKLgzVUzc
UWq2AGMdsrYj8tj/ERFXzJ06VGiq/pbXZ8fdSEQxbuEzq9uZU1u9rhe+3iHnahOU
LVMk9PAZ4ZTeBTsTcIplOFkIiUU8e5a3dhWTrwdE0fYXpcXq+VbLlBd05f7A/kVG
FmdupVVKu430dSLIDV3GwKGnCvZuKDy7IJMRxnmqYCkItoML9tma4LW/kEfyn5w2
mTUjT4+/v65baoc64zh5cbC1c+T8Q3EnGpN8RWlSeeABAvet1lCVKEc+RSGiMLEt
fNzlSs9HYKrJbnqgegusbpvtnLOy7AjQopr6wfTnuSsgSkgeLbuCfQfTLCnxKJER
v+FiFLTBpHatOsoOyBuBKpDby649lz7vtWlGJbFKtidzlKVn476ME6xDGYKeLZ3t
AYbE+7vG6QkmsKKEn3HJKRKYD8XjQn6hI52Gje323hO2nvuskp4qjc/JKNkk17p7
nKsi8QnHB0Qm8PXpM1pgHbU6Zx8fbNP90oW0NExoZGxFjx1M7vFR93TGqFG9fJc6
sHZuKxQUSzzHvCvUU5oSsXnY7CwkKVZNBEHhXqbMrUtHepdS1D+gez+g0tfFXCKP
ok72/7rB8flZRYrXmnvLLdJ2SlfHzDzSapj9Z3aqlqS61JOyvgCNhvbamCF0IqTF
jb8KoQL9xXbEGW4oMIwv
=sAtd
-----END PGP SIGNATURE-----
