-----BEGIN PGP SIGNATURE-----
Version: BCPG v1.70

iQIcBAEBCgAGBQJqp96kAAoJEEYxW5yCr7ufSXMP/R8pcWZPJU/b/GPMG3773/fQ
ecQCyW+CTrdtWOfORGLM7CB4pRtvt6wJnZ/uw5L8prUfRgXnHpbnhheRtGGvIkJG
hDaRShA4o96t3mVu89ZxO0ZhpqsIHoqFZKXqk2YhH2B6pgT5A2GJ3c7uRb973HRx
0NiAM9wPKVDopbPPOwQ7ST2lSr55ZOq1QCTdpa7SfacR/8n+F/0GROUtEZNN2uKx
JI2op4kNa4LdowwaT5QD3kffQQlsu0UJJM5ccu1ZDwaMcAdN+CZ3SZhtJFiXmHgF
8dZ6HTWZLWRDMXh/lsVtd49tJc9QlDEjGtDJI+iNUsVehLueG6XZlhMh4kwUckxO
y17p1+lZ68WnEUZYp+kOFySfVGEc78GDiiBU4Uu7qs7PEU3yLmK5gzhT/uTeAXL1
MQYmT/7npT8bK+bXfU9fLXdzK211VXrgVWBxbiVVYXCUwMQ5R2f0xLtA0Y6fMHLh
Ge63/icqExuUUtX/rhsAUPelSMZwgHdcCOF57Uuj0cSr8KScsGA42K7S42SeLd9B
PQlmZj/dXxpmICWrzFy/E3/+0MpOxG2mo9d5x1NTLm1s4Rtpn+68/bbSXN/2Lm39
wQr3g2B4RYY5r9mkmCV7b+X6i4KbT0vn8lah296KeHAV2VE/ozwNo62Fbi+XsTJ7
VFehitXEbEGT7qZbBIx9
=SW3Z
-----END PGP SIGNATURE-----
