-----BEGIN PGP SIGNATURE-----
Version: BCPG v1.70

iQIcBAEBCgAGBQJqInuJAAoJEC31hFfw+Njjri4QAJI8nOVdnVKa7a/cG8qh2MSA
HP6OlcLUhRzkNqeBDIFcLAWZO5t/a3w8l3IwT5DQX/kKIcI6/riv2FPQjtWck+3f
g5k8BUB2BqfGK8/xFAM+gVlDz0wNTc9XILpAUCFBujzieW40Mneih7hKJ/3+zvRk
Yyj8iMnS0kN5ypA42JmtJseJKGaOU2yKkJqE7oOlINCQ1P3308aoIJ4v1VVN1gM0
ETQijdwCRW77bzY9WwCcbWkbiP1/dLNC5edDvO/k+ZCYmNsNFf0T78WkOOz8ek45
tZPrPtrY4Kqtm9GzKYxPmGFQzD2x5B0d/E/r2WHABNj94IB98g6keeXWY4Sicjod
bU3AyI2XHI83eFinmVuC+kcMNPYiUmoLwj2W1xzTIFosU/BoBIjBAxmD58QEK4rO
ncKgM8iqkJ1u3jQBHVNfHP5yt28H4PLMxbFhM/yGpydMTYNT6EtcH0vXKLGnqhQG
NQfoWcTg7vJje/2yQHoYS7Kxl6oSgEjYQodU1Ca3vs7GSzIFlbyQnFcnnID+F5+b
r6mezZ1CSdzhCbcFOxFjgQc8szVy2Lg35OyPEYmnTxFAqXuJc++CEIvUtc66phcP
vW0kX3sbo1Q4IZw0v7KVoWqVBQip0LxVi3991MP44J0s0wPqcze1P0XdThcvdfdQ
IytpGWRgPxljhciEcyaT
=a5vJ
-----END PGP SIGNATURE-----
