-----BEGIN PGP SIGNATURE-----
Version: BCPG v1.70

iQIcBAEBCgAGBQJqtQKRAAoJEEYxW5yCr7ufd0cP/AxNXK1krOyfOISZ3cAntNdO
N3iwgK2a7i1/ZKAMvu53ysfVOl84PNsc7ifhEj3eBZJC/ayvG8Vj3IykovehsXHw
Glh0HWL1ycb1sGg4DUiGyiCe0q5tWi1t0v4YZUVey16sPqBQYXZrWyzbH7Yu9NQn
EZhTIGvvL1lIU1Zb9/Sxazvr8F08e75owowrxP4/lai6Zs2Pa7m/FgxFyeWLlYCt
JDLqBffWr+zofP9vVywx4JLHPcKDhZvDawlciZeJSiPaFMMuQc1pgP3OamxWcuXR
CFXy7A34cVW26atcWb9k+bi7lH4Lvo4gHrfBi4A35PL7w4dulUYtsEezlMd8ZL1R
CK+39JuVqatp4Ne2Fakhhyb5yISRXRwcMQcs5K5SlF3URys39wgFuajQLN+OWtJX
hpn4F6G7IrrL62pX28v/4wnmVMIg5MX8TeHuSl3Us1DwzsTigFBwvhRnNsQlUqG4
k5RAdaiRYkBGIeBGTuX8HG7RsXE3xiYwu9Rz9rjVdL/S8KfxPMYiS1kWbC6WOrx6
d6lNGeyE3oNwo1pwWddSaepnRgE7k9YuwUkr5h+0cMeOyt6WBQfYrSwWEkzm42WE
SZiz+y1UFbr/zMZvvQExOAz9NIJG+GHS5MCS2df3qsbmfUVPmLPLbY5COzI0IRDK
mVrIEbHIL+1GqN/NgH3L
=WmF4
-----END PGP SIGNATURE-----
