-----BEGIN PGP SIGNATURE-----
Version: BCPG v1.70

iQIcBAEBCgAGBQJquiRWAAoJEEYxW5yCr7ufqT0QAIcKk/klelfR0XO2ZYrxkfRW
fsQv9FEkcEbevpX2bHGqbNig60gDiSOwURr93/AXftlO+623e2/Or1SvkZFTYm+/
6/tHBfMyOim5QXEsVjOfaBjeduyKPAhsH/VllyqMzNZlFTNBnJ6W79snMLWqJD+0
TznxL+fFGmqPpM05ChEIxp1jTdrkd3Twiq3aJ4MWTGlt0MhMlhcoZ4cjEn29hlxJ
jD/LOgwXLkT8iTAh6H6F7gw1JUHTXPMGMICMI6sxdjA0Gpo53fftOpyaiRf5HB0q
sKbWbswokgM1LvEIftgul7pmMLJ4rmuAG49sqMYwBqH7hQkBZYv7zNOlaLIJS0ky
uFsBSQLk6ic9KqJiRMMXbaiLvS7bu+zdDTvGwgElaY8N+/vjrNLAlUIWe9LyZ9Ag
KwmdHJzOOKHPX6IjojcI8Fzdnss0eJnSHGgs8rVX5DTPxREi3/zLq1bvkQESXxrd
MpqdKFaB01VrOGiy4diz0zwbJyAJci5ZBXVLFgx2vXjvRZ7RfTDHgqzZcmSKgH/0
7Uxn5hig82HmnCR31zIy78xg3jceMYECLgtvw3Ez069tibeoV/TI/u2iQRfi32VE
SpfNd0bzZJ0UPWc2Ui/QLoVZ2wUmlbZyToR8+MC9qaXKVygKfQ25/u1Oqmm6pnCI
uG0Wqkv4U7cTvxGPN2MG
=Gh+h
-----END PGP SIGNATURE-----
