-----BEGIN PGP SIGNATURE-----
Version: BCPG v1.70

iQIcBAEBCgAGBQJqoqc6AAoJEEYxW5yCr7ufkQ8P/jNkLjbwNjQjYWdi7+x61A/T
+KGW2uCRODqWBdMW6rUvRQpngIPXbJUBsROGC1w/rytJlNHufNQngN/X3GUnPKTA
9zfP1pzucc6XpMwKdBF/eYpGw7F2WyL0I4ieKn2Rxn6rMWaXGOr+tSZdQfsSDjsg
N96zicAQtwbOABMFPBkjWRqvJBLCqsNJIigxMPXrCfADdHsYS35qyLYB1HbpbhVY
FNnLJ8sYVVol9yYOWmkSl82GaMSwEt12+nCeXpzmwyZo2k9SXAWLyZWVGoltxwd/
/EMN0VUAmGyY7PZpdZQ/IQ7UDS8FQngr87GFZ62bfXm9jxJnJqD/QKckGV0cF1n9
vTjfCEj/lwLl4QjCY4N56lNX6TyKGeQoavOjsyOUs28uBTJXguXeScFJ2HPF/gXi
RGSFHvI75zXVt2oJcfv28GzIJdsjKuni+X/E3hPLNc269Mlx3CgcQ9GLDbOiDejw
1CbqrSgA0NnRNOXxo84O5OBxYXGw7jkpi+lTz8Dm5nCukIrLpoH8xIRPNp/zlId2
IMcsCh0g9VDI+z5SJpaAHBFI9KjrcFos2VGnM+mVRK9oPnKyFqM1/49dHAeeT6Ce
TF5XWXFxv0hXOkUUoJZtJ6R/fQao/n5VFf9xxoD4yagCp1cBuMIlnou1xTARsvGx
er+wVEwUf2ahZxC6tonU
=Yn98
-----END PGP SIGNATURE-----
