-----BEGIN PGP SIGNATURE-----
Version: BCPG v1.70

iQIcBAEBCgAGBQJqlq4kAAoJEEYxW5yCr7uf/Z4P/2k0ZUmeZ0lpvAd2lXSWr79m
j8Jp3YpnGps2+N/svhfJwucIcht6dEJFMiZElrtD+nYPgaURJzZZGzmQYu+Rusz8
P8ZbX0v6zQESi74Z/rpD9xpmnpCDhBdmP5fD1yyI2YnGYuD5rZn3TRdkPGFZi2Po
PnzD6XpVWyY8dOcSVNUCfQ/kdR7Zk41KbUwEHIPq9L18Xeol1xGJBZamiiiJwgLM
3ceMu6kPDKf5Fuhl0VCbXs5lcTF9jZ1gWO8QyIb8x7ByuPU7dCKt55x3fcI2Fd8Y
9/2DfPYQSBRbxSef+yC6uH1DJCoY+dir5TOpn4dntEgG7ff60DVuTPhiSmYFFlDZ
/T9SL2peBKfwXTyLA/qY+2GdIMO/VyhgjtZEDiaB88Vq0EiHMKywOH6odWEe1EXC
I7b8uymetRN/XS+bZG1wHWutST8egCj9o1DmqfL/EJbBmSl9ljtvlK59EoZ0gSb6
nqzORnPggc7wyF7MEjIVac/lySn/P8M5ellwVA1zYepf8ipiyD50vWTpX+P1PEOE
BR4S8vg6imF+Bzvegr6If6Dw8y6JIez9ZdMMDlUD4nYiZsCfCTBpQ+RaGWLnkfxo
dAM30ABXkAU8OOWKZM4/G10OL31eb2FYkaZi3Na1ppVEQ8MYoKCXgtKmAA4TTQ1a
tRKFJYOCa4u92+4yOdPX
=k591
-----END PGP SIGNATURE-----
