-----BEGIN PGP SIGNATURE-----
Version: BCPG v1.70

iQIcBAEBCgAGBQJqo+VqAAoJEEYxW5yCr7ufmsQQAI/9aAeH8UPEXooF6aGL/Ska
pLM7t58m1DlP1UeMlXkFyXQSFqqBV/JzIlf0+2ghEeXHJxPmETMVBaCw1LG4zOPD
iJf4GaJtE8yY1SVB/dqafh7l1h05kn0pFT3wOqsJQDQri86+QCg91H77DIdVx2nJ
ULILqbOfdCx1spUcxTkNfcPeT5ae0y7RQCFkqhbv713M/PhadHI9CkWMH1iO6g3a
5wIpVMy+xMAW6XMx6GVMNVs7csmgHETqzL5mbLwURYG3CDNhGR1/8p3mIOhcIvh7
8CrLVruzTF6YZqwlBrZmcXsFqP9TEEXFf07ojaRWrRTaTjAaLeSwkR+s+Jj75Mwt
2AcG14QsJsWLMdYeg2rIL9CFHNyR5W7Q1InAk8l7vIYwPBaBVZeUTsFiIii1GIwZ
+X2/grcTlPUSIjdUxYeeYTCbRnE5+dKQebTuCMRthyy4rW/BuR/pPszz7sQbapFx
rVtLCWK7B7CcRNo2Rhi0IY7e670Kmbrz9IBRqvCvtLoZoWT5qcNDWNGGR14BnQqc
KfFqoxGyAxprNXQv5/mKCd5VnJ1Ci+amX3XD8B2BCcf0m1HBH6zcuevvUYa1kibn
O79sWqFUmexg2FMA8oUrXGHAZFVLs7HvRZL5KotXz75/ubMyZUN7GV3tsDH1asGD
B9OLfFyYC1IfDvltCxLH
=bMJJ
-----END PGP SIGNATURE-----
