-----BEGIN PGP SIGNATURE-----
Version: BCPG v1.70

iQIcBAEBCgAGBQJqBt1mAAoJEC31hFfw+NjjuJkQAMk2ETYnuEytNA4rLt43xQLC
V/Mq/oA2c/i/BVRIkfkLyIK0WHB4ZIkGmxytxQ1yVLZE9i9ufTsdqO0KzIHnkSE+
bAoVU0zlZYd9lEYOvCoiizYRXBvq+cHZ45sfSbzvl+U8jJa+4bYmWYPTxLD5kFC5
PV0zXcANO+kgB+SMUNpPEQuLNXaQMinEhSKcZ12JW8azq0/5XcUbA40jfBEmqVYv
R2aIVTpyHTkGoeOxLjPblbxXpcF59sad2tipjO0624bkLvcTAJtxpdKnAEV+sGLA
2rCrJItx1nmhLD/kJ2xhnGwCVi5GLUiluQvV3x2lPLviKkrl1NlYXNYSvH3HQgqg
97wXIfzngSngf8FQZYOfL0lxF/GgmvLKfVBz4Xzrhf9qdrjvFoXsdkTlMhvAtJzV
oumxMfaEIxG4josXvUCBUxOB5eTfy7gHFDTnrQsOoa75SsarqZC1pIwo4Lm/TB9m
CkS79xCx0/3muZTdxaFdLOkk0NNKqG1cgW9kgylu5n/awJPgq2EbNMNi4LodIFS3
xpbPYy/y8HRRtHIZzv4tWD+0NCKEStA6iXgx5v87Y2z8+vRTEGsmizlzR/Q5DINl
gSlnCHxiK57mngw+e+ZjggJ7el3LE5OpxPmqrMYSgxip8bQkQahZz2UeoEI5n9Hz
WlKdYRcdXU7NHxR4l19M
=WXZz
-----END PGP SIGNATURE-----
