-----BEGIN PGP SIGNATURE-----
Version: BCPG v1.70

iQIcBAEBCgAGBQJqRi3VAAoJEC31hFfw+NjjACgP/0gGgbhCGbND8KqBkzCHORmT
pMAr1LCYXrMQaEWl+6eSpRKnM7I42fhkL6R6YlAd60fnciKeznJ6cSdATotkfYZt
XzsckSyIpZnmX9TXSMNLw9Y0ICy0GyQVrrb8KCCONQVn4SxiOSBEwM03cnkxpMna
qLztIXvLIczUZKU7VcEOiFnOrwH7pvz6Vd5lFkaDPM/34EUvqGH/tyxQZUsEvFPa
SSb+fixEbOUjt8zphlS6NJ+y3YXCGqTRx1psE9hl710MjV9nVys8Hn73akZ8lT7t
0CX4qrKkhmi2wGpME0mFL9/Idm8yGjJo19OxQJ9dyVgqLOdsGCawFiTeIfqCSd/x
px/Hw38rZ57SSAFR8bE+HnbH1w9Yb2pZV+zm1y5wBMr5ORFtnjAU/nRuWUx/k1dT
r5YyjZX6lgXYoepAt9Pzu1luM1/EFLnnLOoQ8CSbBcz4V1PqZ8681qYRb+e+0fRn
x5GETtqaSRWsgxNNfMDCEtYHP3/Ylv5Zf6ziycesFusYklbup07baWyc9VLe5lr7
tMqwo7fo0BswW1XIzT+D/mRq0hO7HWaOTgv3TKaOZ3Hnm+EFVCl+c+HRYnOEwt19
c6byl04q4xW85TUJrOPOWdaPC2DE/8wh/lFo0oy3rK080ttmWpKJ8WrGH72wnLn1
9V1fvW0BXY0q2gDf0aMy
=rxNU
-----END PGP SIGNATURE-----
