-----BEGIN PGP SIGNATURE-----
Version: BCPG v1.70

iQIcBAEBCgAGBQJqtQO5AAoJEEYxW5yCr7ufRRUQALfFK0RRJCVjSjK9OTMnr3Yv
a8nP+MdAnOBZsgtgmZOcsk40pY3ZqUADsfgTtXpnBvRZHms/Aib8NMUOdXYYfLE+
uTwhDyF97etzwBDrBzomLSmuswEXzF4OCRLD47DZSSNb3QXkUUXurA0ek7OpagNS
7DLNcsZ4yXgKNwykcPJ/RNSjVkPHD6URpMNqzkUDxmemYF94LyY94c9qx9+EA9WX
6yA4FAHs1cDgT/FMcaoMzIHeGUTyiHmd7c7oi5m/SHVFw+iVVWKL/i56dkeDqc+K
drOWcrj+dHA4QFSz4duoHp9mjG2AH/m3REBq9mkBKa8OSmZVWm5HgSJtpMdUj7m2
nNm+McbN10nbKfkOGU7MMBHEI9e14XQjuf/oDE+pXD8EjQS6FxyNsFwJ44oshabY
R5YBnAoQViYauP8cYhU+IrKbuUhEA2uRaMMvf7ulpghjZcTDhIbOZKB1a5+MoqdM
QKCRYX+uWORfdfPwFP+MWl4e1DccO83pntNaDCmDh4suaE+hvRKRTWGaS1ahxQDo
0b0kKkUTF3Vv6JE/yCNESnJdB8WnK+G6RviiUfPifhlWW3J0nJBDj8wb/VECTSgG
JxPmL4EP40tNmOu2Ydfk5fIYPw78F3tzpS5NrYLI7bvrGUIj8BbF4oUKq8RXwkEr
tgyAAsoHSXgxXzquM1Ug
=OwfD
-----END PGP SIGNATURE-----
