-----BEGIN PGP SIGNATURE-----
Version: BCPG v1.70

iQIcBAEBCgAGBQJqqStqAAoJEEYxW5yCr7ufjXoQAKcjJOxBtylOvvah0kK3YdvK
JP9O9D65YZafMPp30huEuHiFsWaaYxq+c8FkdUKoHAkXpMPFxEVniFo5PtkC3/nM
xZ01kHdXn4avzEsZHvKXjAJImoXt5oCao6zYYv6doodfV0GTC8LF+iuApnudDEhG
34aDcba10ZFBiUEQ7JwX1YA4QTZNTgPYog4pvWN7JruhtRZwTjP7lqyAfkkoKE3V
iEhAsjR0p7tA6whD8j1y87PXNim0RCCkoo5dGgxwwPftH1iBrTMl1MPRG+e1obRC
sgWfF5PEW8tl6j9tEkjjC9J5RhIGaSbwVLwslw577hiMjmUaBdh/pqZDsHsigbj2
h06gkF1V7HfTStLJUlpcH9EucEj5xhkWg5y5Tirgp2MB/ABsn8+LPtqW+PodXllf
V7NtZkrdJxRX+FrY8tnHK4rlyjwyzUU26r0FU2EDS685nT8ggWqgBR0aYd96IZi9
0PTNbpoNadKxyCjbHG9wb+KDFDD2W3XZJb39+YukopRoQje6plioPh+pXUq0XCCl
4BuTd8eBnZXrvpiXiLSVcrVNsU/OoK6LdHsBO/MIGw2N+NPLSOVsyHJtZtb68bN5
xAa+WYgbSHe/igzeQA73zNTE50StzGZvUiEgHtZkS0O0JFdLL6Sb+s16yXUeEkfw
zRRm7230rFVUC88zLgSi
=SY3J
-----END PGP SIGNATURE-----
