-----BEGIN PGP SIGNATURE-----
Version: BCPG v1.70

iQIcBAEBCgAGBQJqhs/LAAoJEEYxW5yCr7ufZWMQAKSRVpU2GoaSKpTzXn5bocEm
qZfTAtNZLzIqx557GOR682P4Vlb4cImDOqUHPb4YMWJKa4NlVGw6+Mjiu9Lp+yYh
lRAySQa3aEXwa9y9rUNTEhZw+ri9Lkf+nsSpvn2aQPT9yO/9tOzkiF+aZX/8+Dar
B5zQSPmUjvhzJvVAyl+Jkc75H8F9HePPyziSarqffzlVywk5R93WEAGQu5WLmS9u
T8stYBirJdwQDJaZe/WG5ppLSzCV9odIhNzUhH4hkZe0UeNl33yCw2u7q0xvOAXc
C6kY6p7zHQgJQrtHGUsvY0E0mLDv2XDkh8vH/OO0DQdU2gC5Xf9/S7WB4F7gdFVh
v/0uVacKxmxG037vCEu/ejzXqI++FGRc1WcbCQtx5LgE2Lhbij79vgPcKsxFApMa
kVUqmUSx1CXxLjPET5fYaA6HAnsBUE9Os1mD3hFT+PEmLVlrDn+3R9ofqACpuPZP
OCwYYgWi46D48OiyuQwpnSE0pdXiHuC1DS9FcuYNBj+scHI17xpMQaVOO1ORucLg
hBS7O7JQsfuTUTd/02V2E2gdsmPlBUr0VStwIJUa2EB8H1j/iUMfKao9Zw0QFMA2
HhXnD1A6AoEhAfSJDesyjt5V2pDNitLaZCYMWRRoDY80GfJ26HTRvb8NIWmMa6zJ
uvzJWveGZSLB/XCJWEwU
=IeYe
-----END PGP SIGNATURE-----
