-----BEGIN PGP SIGNATURE-----
Version: BCPG v1.70

iQIcBAEBCgAGBQJqjqzgAAoJEEYxW5yCr7ufba4P/iBa/Gc2FSMgy07yigtwrJM6
xN0KS6x/35mPeYqBXV9ABCVTk8uS5e9AdCL1QUR7FqN5T03FWuraRORRdVOgMi8G
bF+hG9aRJyF1GzTzEFvx0RjKrOIUn2K739Tn2L1W7m3TuexuJUsm4bXSJ03xFNqC
az+x7TW3MP7oJYOHYYTcphM3QmeoyW8Cods0qscEp561eMmPPUxaTItJw9mK+otp
NMhVIUtjznwlOBx/mG1QyD+Pij2kAVrOdu2uc2xexSoMI7A6pGiBYn8ZqDCoOvEI
jON7p2KIjxJpfISAL6dFNnDsfv83PdF6cCMxMBQNyWxZW7NCVc5ocZcA8ak04ift
PLKDyNNvfskswbpo7YdQ5ZdOqZpD0CvtqgiONK+Em0gthMJXR6Zg1RLA4rR2FEuB
k4UO9U03ytzDXefGSvHZ+CrRSSlPbSPiC4gg3d9RmM3A5ReBTsTdGRBOje/xoE1+
WGw/svNUOfcDST6Yy4mqyHG51TWyG9MVfO1BpXm2Y6l1X7zlHHE2w0lPoGGCM6sa
UAOfcapPMiJsZkEOxGIgQ2sGkZJ+rdGIhx9YP5OV+ovcc6REqnC9sggFGbfYDyYo
knjTi/eOLynttdwhdxErztkqDfrwCZlDUsGU+ScPpyLFuDrZXpXpM9N6ZgB1lpUE
SbX6jDPsMvZJb5M9NPrD
=fjaC
-----END PGP SIGNATURE-----
