-----BEGIN PGP SIGNATURE-----
Version: BCPG v1.70

iQIcBAEBCgAGBQJqF+4wAAoJEC31hFfw+NjjUwAP/1Y+P1z98XDB5PJi7ZJtXSbU
4V4dfJJmgpUESywxkF9MIA2/Vutck9Zn5VPjhWQDIndl+0yBm4+l0N0ppZPjItnS
1wzJYiRSt9I9dCjQ73Ug2+heS43SaoNxXcugj1oyNLSjSksQHG3hqsNpe86iZ/BJ
XB3nXn6mNFTgT5eFnhcxVdrA/BA03NQgdpGxXDFMurVUWXQRvMZnGn9RB4N0w/Ed
DYNgovvsHJeMW3H3bEdpZetoXtUf4yNcFUJ33GlrR/YTPgrbfPgFx+jmXcxFSI7Y
qxDzHEGbsaD4D1+LOplILK/wKyNSemA+qT/8Wr/4NmKIBDNj5W3BrEHTByD+mywL
WXrYJbKXPMZL/j7wgSN6o/pagcIM45SA0iHF0o5qgp1mpU4V2eyHwN/c44tVqTOn
MsM4vqWI18AhS+AT8YlfVZn526jyOw1NVFX6oTDbQ1KBheEtRGyp1s/bu1+u3joY
gRoxssI0YmETS2ssuss4iRn6lEOc9rZrWIrKh+/dwsTkkA8dbo6a7QI6/3uE5iIi
c4CyZpJiHUlIuEpYyxuzaMfWe9hwT9jBS4LTzMGRNJ3s13G90ACItas0HpHzKDVJ
F9J5aACo8M4ttF7dEVniMHw2algnbX4Ktqm1CuN4DhkN4+C86Ro4tO1Tp8YkoyTG
/liJxZItlbG2HgsMR9c1
=gdBt
-----END PGP SIGNATURE-----
