-----BEGIN PGP SIGNATURE-----
Version: BCPG v1.70

iQIcBAEBCgAGBQJqlq5VAAoJEEYxW5yCr7ufKskQAI43YjAdYhLTh8tJgPuZr6vg
k1VU5inTY4WntiqHCJFsshmMNfPE28pAJZvlmWRRi3hZIoQFvRsuDkDPoD2FASXC
WK6gppOSlP/C7sbG3t4gRpnHJFyvcUh02MQlKKr6DlaGAh/C0BIr3fdlz5u4G34C
Av0LNzTOV+PKuc4QXh04pSlq4fvPIowMPLRNH/8HhlYH38LPilDyzWh02+6zTlJh
20cTGGcdUiTvq52KzQ2QnkwAsOmYbXd8xf/hO1FxawsKj0Im0lrYRr1xHwOajIU2
1ho+ksO7g/LoM1u52oEPV6f4kUyecPr4tnchWT5PxyN5ilDuGKegy5aQjRHuBB0C
PPIigouiAUd/pZ5zz7+ktBLY7n7J0COps54u204T4cb61frKfdUCAqWH6sQvzC2U
3MjDW2foZ7cRZQT9RSYC/TUZg63rXpUyVue3yswIwBt5delX+9jsz/6a4TrWJmyM
OLeUJX1hJqoZVZAryKrTJmCZn5eTdHZdGlNf+tHcwKeIKD67MTXPfZEPYFHeQB9q
FF/oBgrmd5GR+FZ0vdcOPT6fvuhEko0OY+NA5V/RkZ9LNpaXaeVgoCX8CyqWi9Ig
HuhNuhtZSLoO047V9G3XV7GrGXPMTf+7m4jpnYSmtpGXrcGVE7r92wnJOvDk5rCw
blKPAeVpBvRgLI5/lqMd
=XGWD
-----END PGP SIGNATURE-----
