-----BEGIN PGP SIGNATURE-----
Version: BCPG v1.70

iQIcBAEBCgAGBQJqQjfTAAoJEC31hFfw+NjjbX0P/jwPpBD6T7viWgc4UqWZmCnJ
Oy7vVRP89y0/M5Roi+/wo0WLGAgbp1OmI7zVLyIbvVFeZX2ttvakQzdRMLUl7u9T
n9zrsPf1Mt+TdNkbgnK6aY+A8xpMacJDwT0KNEfE6LiTGDuLtdJcnZx62COxm26R
97Ih581uzjlIlBBcJzJzH0ZnknxR9oUsp3kGERtOTucLqxVxcdAqExuk3fdLcUiL
pj718jqqT+wxJcSAISkd0jDT5qVWR37jxXGxMkvrM3ua9GEkXYZIQDdUGSBcWnpM
wsZIyuztvmr4evao4rTErc1fD4N02gyUq2fJd0HqOfhHkKOLDW9+CD3+8imuHRPp
/W8eaFZLvtnjty/JsP+rMC9BlTkwIzoXPdRXaHxfoYvzznAov0ye03GDhd81SRBi
Fl7O0YYrQkt3dXrB004cEcmKHb1Y3cV+PB9dmL5IdAfyJy3Ic0B5+fLA2TIIqTSF
8c0mxnEuke/si0I2/pquwRQF8HAczdquUZxnxLjYl68rpw1OtSp2K96wSBcZvi1f
OaJSIVIsuptDn8D2qufc1LvnVRpIYOo/9uzCFKkj2tns5Vc+uoP4AE6ZX0EcTLUT
Br4dAWZESJM8oYPj3oOks0mzb0S1al7uF+j6yzWxVRiEuKc+MQK6uMLjqJKN6KFH
jWbTT7i9J5P1HDy0JyH/
=gE/p
-----END PGP SIGNATURE-----
