-----BEGIN PGP SIGNATURE-----
Version: BCPG v1.70

iQIcBAEBCgAGBQJqT2gtAAoJEC31hFfw+NjjwUIQAI9c28PtsSTZ2HDhs+sBLht4
G8M1ZJ5BdRX9nZEHj/wo5QjwW6drQsEsS9s0UFRY6HzPO4YO0wNpiWpssHsyUgOb
opvNh9RX7sEO4onpu6O++ESY3L/d70GC0Hlp+VaCut19Ov5191jl01vgnf0ufrBV
ufMxYOPvRn7LEVO1TYLmtO5uhOZp/BnBco8XRWroJ5VeGlhCXJU+RqhUoZYK2PQY
XBBBWP9U5H+lHuUcL5FfvYfse7gqDaTWPqgY3k5v/NT1KZU+5iLpB7kXrpBOmuKh
jGSFILf2CK/Rvj6Ms55KIKPP7zsGk1RZMsa5LSpQj3/vTLOWJ70gcJr2bUBU/jNR
MWIdg51gTebSSxkvzM+Yv6H4+8JffOXMTU3JK4mSMzix8RMPocGjEEl6jdFjioI0
pWI/BFItE1YjczECeqKuuUSa2wrZsGsQas04viZ7pHXY7AD3SOWDoKnT/Ymb6S/F
nM3SxN0gfk/rkPW6NE4Z070AjG0y2eyG5otkWK/7Ie0WJT44oVlEu4rT9urYkTfp
TN2p2xPmae0LWwCmtOVre9dxuJ4c366N7fJSb8CEgyfpVOvPueVEB+ZweP/sahIm
2JH9lVBynUTy7h5GVBPhUTU8ix1OEE7atvJ2HOp7LXTFPwx7PBfloJGTyI79yPHJ
HubPkAWLsbHDRfVsq6N7
=8HXD
-----END PGP SIGNATURE-----
