-----BEGIN PGP SIGNATURE-----
Version: BCPG v1.70

iQIcBAEBCgAGBQJqsm6PAAoJEEYxW5yCr7ufHfYP/icnW9nCL6aFT6jHOoidn4DX
t8TIHzW2XwPwE2mg4IZ0PB/bIH86xVyQp9/hCmt+/VDOEXeIZpxhhnIEzdpO+uUe
W/klO7kQ+5qXPmiZUGc7YN1ISie/SR1SpNiQVfwJZ/7r6Y3L22f2b4TOI3FNZ+lz
/YFt3DDF8O0XxdJp8pbie9C/GAU5yDfo2bqwcIN9ZoEoswBJoMr21gHKGCErhvDS
419hqEjPF1FGgapF1zFSSxexWrosiwurr9+3tCHmL/YI6TGar1V8qXuB5cpz5l+u
6OaRrVxQDmbHi2AIbAC+V3+i4AGD80NjiQ1khgPyGXCsB0mU65kgb+v5NOhvy13e
y4DaO8Gc2vuNj1gGFAJOGv1phkkj1nlMRNj5E2N2MkA7AnqfcKJ5E8OK/+L1w4lT
0oOPqNBJ5m3Dmg3+3bSYkKqQ7kwf8osgjNIegal7vRi9XSSp3XUgm6UG/ouFYlmP
dGFSTCnPEFR4wUk0HMF0Uz3plRmMr1ruRZ0Y/PpNlgcw50r3aI5vLXWJrXCNJXOo
96jztt2qdvU1bSMFbyjbiYWkv9DahDN+IT0JVINGNpgrH7sf2RJDNWHqzAcombpS
UhGeX3MqMjuwIqsUzsNt6afPQiur6OEdz7BxMP5+ROEUibvihqMBYsuWpWhHkX+O
cvhi+CIMSGZkMJgxNn7f
=IsVA
-----END PGP SIGNATURE-----
