-----BEGIN PGP SIGNATURE-----
Version: BCPG v1.70

iQIcBAEBCgAGBQJqs7cUAAoJEEYxW5yCr7uffu0QAKNDqO7GZeusn7nkLFu4g4U7
g9qs4wTBYulUdzz/0bSYhy8/W7oeDhAYYH1xLOyckCz4+Cet4n96mwLKkyY3navT
5XDXaR3aydM6OMYpwhbBlNla787hFW6uaadcVEPojKARVR8r3xDMcSwURE3evdP8
LBQOuXUMIwWEGXOlCFqOUTn+vBf24FHuQ+ULeTyU2tU0pbgDmU4xZspwToMbRxct
l6PhTvKiRN+FPTSmnRYcTr38Ydmkcqsfadjh4rMO48Mp4NriJH2eHXtMI4YQ3wht
8BqqnIWIaSwJP8XpmkGtKGYwgIZSY6wqnbdOrZFKucqMmsJfCc+kd11FMukD2Aif
PBNisrIs3aaf2+Xf2j+pKFI/nmFCuDRGUiR6cWLg0GGyJb+TMWNmtZu8ZHfZcgGK
BoNUDyo+WeZh4Vetcu6lCCNqjgcMxTSAsTH8svj6h8/YjjQcFDWz9/p2bfHf2Djy
yqTWjNORN+5w4YiVAJ1hQmdYUjCceSTEgInTVzh5JCCOA6kaTLF0Ruj8htG5uo3e
RFQ/i4VN72nmgwF9S8y8SXZlgJ9EL9hQVSCrDNN/bWoTkL9XvkE4QR4dqoLNyMWL
oF85cuILujd7lIhU+ydBiL/nH6MXfk8i2qE2Y42PCxI5DVplMVxra2DXcsMfXxg8
mUw9PkFVzCaeyVPn5Vmz
=O0ZW
-----END PGP SIGNATURE-----
