-----BEGIN PGP SIGNATURE-----
Version: BCPG v1.70

iQIcBAEBCgAGBQJqlq6MAAoJEEYxW5yCr7ufDMgP/jfoQypl7jLaeZc3FXUwmb3/
2rapN86xVDaHIgyJRD+8kSbXpbip9PZ6l07w0XPMRCq2Ml0oDOnedtOm1XC6DBeh
YcgIB5mo4HuPiPYCIx60FX1FNFPJHsOfwaagbQPx4ebmHzyivlgMRpegZbS5dyGU
02WLlrJQ4XcSUSXeoGLTrhV+7Vrdcy2cUs+bezIhOkYX8vjUBrj+yCIfhD+bmpC8
8NtQOv7jJyPnBnK4JDl1MSa6pO/JFAaYTr9NzYMJFhutdWUh2yCBvTSBhpvNlfkn
iO6WWp+U71XgdERF/gG+pphtQKWxQ1DPsGglgIQiKg2kTCtuzH93xi5ua7j8EvqI
2S3uCaQWiRePoih5Z/zFMIuWpQhdSne1EvuuNqBKSdUFLB+ZmV9nYwIq7Xft8fnD
268CuKgrqA/vb5soHpkIkKouYkKNRxZFfQg/7idZC/Vj7CQwcpUI+duT1cE7rLQW
Zzwzalpzu7UOrO27e6go3bS9b0+2nr4FTBeKXltDkEShrvQIwvA2JswMgRYoGP4v
DhIwIWE7akifNaPGvFnLlXdg6n/Q9Ez/sX+qkwThVr2QBsVk7GtsURRz6Knh9uI/
6SOcKYLgUbh2dcb+egFpbfscWnTcnmX55CkV5Z2CkSP/JQSXxiWRbFNKkB52hg3w
3AhsgJx6fgpXLy1PJXId
=I8Tz
-----END PGP SIGNATURE-----
