-----BEGIN PGP SIGNATURE-----
Version: BCPG v1.70

iQIcBAEBCgAGBQJqOmZhAAoJEC31hFfw+NjjdnEQAIycMRh90rNkIwRbb78o37z7
7X98CKV3q+gNmV1mSbxfq03FQ9cK+IViWoWOyNsNXVXlbOI+BifI82sAcH4I22R5
oufGiP1zErwDvv27/kOUtOuOPeafxhpayJQh9PtuflmroQLMe+RXDVXvQ0wIF5q+
DBA24wHd1CZGyiIRe6sKf/t1IvQv6RRt/3bHVsobojTbO8xnIIrWIYm8sMiMCPBo
ArEa8rIE7J0QEowxcaAJHZ33+3ilY4ill6HqO8iSGjbhBwlPAsQsUp1WZN0W7CKF
HCR5gluqYEFTIb+2qDA/FKFv/yN+AgmOn6QL9J9CioSeURXpW9DpMDo5foIwGdM/
mNurs/R397Fzm4mwNfb0ehzO/v0O/jzS111GHfWXK3QSrVqW8LbNkXpK7ED27p14
kWIAPY0QDz9tlPmluqSWuG1sU1j+UzQi5f7vIZBXpMqMYWfPy+wVsrdSbKfcPwNR
f77er9EJ1sOyugnxVmgFcbFC6tTa/m7mekH7CM38GoOooePndM0wMdPEZIkr7OvH
R0+mUOo7MtLp1VbEv6K95rro0fAjbYwP20anyrjdmpCqTJvRNBlLUua928XmkG2u
JNPr+ZmAFz1bSSS2IrIwqhFkg+LOphg0WHT7XU9pu3a6b4zAe/5HH5hpA174uvfm
0eMOQunAoCIea2L25jl1
=vDqG
-----END PGP SIGNATURE-----
