-----BEGIN PGP SIGNATURE-----
Version: BCPG v1.70

iQIcBAEBCgAGBQJqV2UWAAoJEC31hFfw+NjjJNQQALzOJ5Z7mthYCsd8YfkEsChy
AFOajzLDpRG+R6q+PfDysGgw2xKRqKV7GbhkmIpa8aNIi97dFnxrwWP8ZTRlEVpk
eLNjFNuiaPD6/0IR0lgtyjujN+sG7SjbWS9cS2YsGI0rIIaRcFjddrhmBcUEjkuV
EQvOs5AAf1WJM5tUWHiRitph2aOvOo7gxFFL1KPqXmQ/hAFobFUnQ89Ri31I+NAH
bErH67r3UgjTPRla/hB1QBMqIrxpB6NzfPv0oGyTA913lsgY2xEjTGApPjAqxRnc
NPN9OzVGmozxPmL0BWgan44hvCOcxe1qyisCr1DfEssV80SBH/UhXaML6QDE2/KT
0kyvn6Qh/a3T/UMw2wZAfJYZ9uNVokwG+IfCnkU0rMOFqTDpMFTxeHG8BkxRA2oN
zecjLSYsfTenrbOG2GoFgTOPexQO/TCQs0O/Cjnx9E7L7ITChh/DIaBqw+qOps+e
F2bcCOvxRr89Rw38pCbQth/7Lq7GTraRLU/LHGqRHDsGc6g6glgTJQGVB7HTwG0b
tlOZf7XcNva1x+/U4qby36VFhU3urh/dv1/DHH8+zzGfnTtfwv2LytQj1DqKsAOt
WRcfkkQVFpSCRfUsI+gVh5eUmw7atIYZfn0uGW4TWDwDBHELPGjOFHoBTC9WyAjV
zbIE5nexPuoUNrNfmOTZ
=eTjB
-----END PGP SIGNATURE-----
