-----BEGIN PGP SIGNATURE-----
Version: BCPG v1.70

iQIcBAEBCgAGBQJqMPa/AAoJEC31hFfw+NjjlEkP/1ExLBj5VAIk9ZCtLiB3ap8E
7b9Y6j4pVaNL00DAUvk3eFqN9DdWW5cEJtyN87uoYup7TdkfE/xAffchueoJKjPZ
t9VGJDH+5PUeOlxQCwHpQ9FVnBQnAM0zZJF4cj9jQSrXo+8/cr5dzagyV4k2kX0i
/m5jiM4ibt78P8ZDmUoFq57IH0WiqJCX7HCMJJPGApOBuTJ7qVkBRJX/fthNg/US
aJ9v8VklF2bMlWiwy7m8fDNnBVw6cSpGyHKAksBK+LW8bqV7940KmwAEAuv4tVwA
lFVAF/EiHsq8Z3KCwcp+nq0wkr2fLEa3KLHV1zhV66io43JOMXDy+S/LcUeNV7Ao
/apqTbijBzFyK7FEiH2yo1JyYwNIH6hv+2eRhUjDwh0hzlQwQsaaXILfSMKyyIsq
dBH9dE8pPoK1j6ovxwak75YYQh/KFXleXpmWZAJUGeOjO7HhqE4YvGP0dgRmxZWS
B9wi/+SHuqMOT1kjiF9tI5ufDxx7J73Cf5dVsvqSMY5FNBojAbJ2Y9tyMPn5mZie
cPmNEEpfmA747pY60mQyTMXJPDbPdaoinjd9gJ8iEqJFyC2aIXucV0fpq+hpvdqq
jh54Y5lG3LbaKAvyo1E3SGZoMkCkcUQW27sUEJp+IjAw8v4iQCZlwC6h+8hI0p+P
f0+nVabqZ/fwQA7ORP/D
=8cbn
-----END PGP SIGNATURE-----
