-----BEGIN PGP SIGNATURE-----
Version: BCPG v1.70

iQIcBAEBCgAGBQJqp9/JAAoJEEYxW5yCr7ufla8P/j1VTzHKAtau2WsThDusqSvI
Qg835FuT+kMYAe0QcTdDGdZzB2NaC2qpBUtFK4roqWCJfJBrQKw4e9ygo4GlbMn7
Li/CwCrYvppfv9VjZ/Th4m4GkeG08tc6gfn8x1DtMK5cZuMScKJhdKbqLUnVKjsc
21bYAso6d9oKjCwZrmHjvJRUB+91WNCciRfohd/F6nmjUHc3a4ogEHBP80tOdhMW
QcEP15CXpIsISxTCK9spq5iTIQSxa7KyNRkyCv5FoWZqeXBWRGrMv7IXmrLlrU08
UT2boy8WH0V/b0mGnFOfXdoL+rgXuXXB4bsGgcikyVo7smOzO3KQMG3HZwLKnqTd
mPQAzqUvgWnXzD9X9H7y4ZbMjOIv6tGUkoA2aqcMFJHaFhOnEb94cNpVMTokjoa8
HoU4mYb2h9N61YtYly5j9C5d+fuyjtgpRC6yJZfcLpPmZy3wM8WNu4JPtJvPJX9O
uTsk8xDipcp/wOXa0ktc7gKZAR+E1UzID4kYvLplb56qNbZNf4Kt0qN00vsLZMWm
N9DoSbp/7AFM5m/UcrYaJS6/6ZqlBGWxpMqUYwzTjsBMsUxA3k9kTFORiJCairB1
s/WuR/PDNoIqJfSfMry+Ozujq/S7n9aB9n4STSQdeW0WGW3BvzRpzzZ2SawajPru
8iLpwBMbgv9onBYupwuL
=u8li
-----END PGP SIGNATURE-----
