-----BEGIN PGP SIGNATURE-----
Version: BCPG v1.70

iQIcBAEBCgAGBQJqyM0QAAoJEEYxW5yCr7ufWzMP/2u3/Cf4EsxMzJeRKh4cDhTM
mJ4aoLEbelmgfwnNKrflEobH/tAgxPmhdofxOwgkypkdny/FWt8XIQoLaVFGsprF
r/QCRkyf0AIYnLq0hDrdPK35gcczszzrGQN2dmO7pMeNwAtff32EC/Uwa2W/blwk
lDRPoTJUpl7LEScDgTKohqr/igbZQlRk8mftK2TzQaII6mrtszb5Be+eppXL8QcW
C2m/HqkOwCH5Bu2ubgQAOBdO1zPYIJ0rO8aNkEEL4oavVVnfISvnBs4cwSy6cfHh
sKCRwczttYMxUSQI1TOQpH+a9e/3DsUhdRzCutiZcov+AIAp2c5eJrqApYgo2W92
J+F3hNQyD6x7SjWz0pvD54lYf7eCoUm9+OoCvGJ8RuNGxen95VA7rBrqSrF3TlO4
gTpaICj4OMS0++S8ZIfCIPOcKUF3lxY1g3egx5M67FlF0dzT/L6myp4FBD/YzOM/
9G6pPnEz6p6kBlBcs3s6BDZlD+UEVSCC7KhuNitAPDC4UFS400rgJ1mDNfog4eAt
2Ww/WkrRdx0FTyo8tqI8RxP6XOT6DY8dhOAucEZRAit/TkQlkUUXekmrXluXg00t
/qOJK1sTaqX5q3uMl/C3I6WbeLQV1AGXuGNOSdI4iILTXc3MTA0mKWwLLZbzZx+c
dBj8LMd/u4vg2Nh6eJf/
=SZdh
-----END PGP SIGNATURE-----
