-----BEGIN PGP SIGNATURE-----
Version: BCPG v1.70

iQIcBAEBCgAGBQJqDAx4AAoJEC31hFfw+Njj6kYP/1T9RGcC3G6vb300ANgIHs7K
nQQbGWEE4EGxPmWWGpl7BmtY+LO6jzPXm00oD7XY2bhcZc7kDe2sVEZ8BTis8wCO
Ss2PY9gtOUjiAekzK7INvFlPg/DGDmdcSXvCERfEhYlzd7uP+t1ZgF1DJoc/xZel
8q98+DR9eFW7SoWj8MG2LhVAZJIAYVWcsmrlgyvJqxiCNBSvhYx3Q0bFaOXFQ8pQ
LEGKSFQM2J1wAQpVQ8/sivshjl90Gh8nSzqOH9C2craxHhDtrBjQbf3SsFw44Mea
a8G0Y4cLTkXuH4NXGdJlupTtj2WT4aJtk0vSjjUUTW8JOac/wOs0BJch82r+X8F0
450OiD/mDDqLrAb4rzFTBHVQ0n3b+ZQvRwZ1Gf7WGY8q6XMco2hofzUlW+FDsK48
W0zA2R7W/TaEUMUa67KrOmWcot8BjLnpJ2hMw/x/lnqNUXKmGo0zHhWE8HlWaBrp
S6Mr9h2G5c9FteYeQqnmdcFTmhNKvWm2qQOMx8H8yFWBrybIBmyFgKxoQq7gZPdN
HEOeVNpP0M2KlWe+nNkdXPesyRl+NHO8IyYucUm3DytrKbgF7iNQ+6os1f8V1KA0
pENQm3J7zZpyBt2YefRWbkOXC7yl1HGYeHwA0o2hoBWHNUFmdXO/w2+8dTTNVC0D
xEg0J/JYP1eB13Fii9T5
=B/sA
-----END PGP SIGNATURE-----
