-----BEGIN PGP SIGNATURE-----
Version: BCPG v1.70

iQIcBAEBCgAGBQJqFYa2AAoJEC31hFfw+Njj7AsP/0pYm9xaXMELegB1xeu10Ybi
BNvPet27V9B7pXN9BegUiU70q+bF3tUcYEI34kMTKPXvqpZdXYANdYJfag75ZCEJ
THNRXpH+iO+xuZIPLT7NPFajWhmlQox39se7LE0JRdG86JloZG8Cz3LrPWcZcFso
SdPXQ7/t7dQK4r3Skde84sCbEgkaRjuflxO0gtTtu+iMTXPmlIDvX1I8R8GNZe/f
IVzmgc1UIkRj+BliMRoo2NN53RTf3/qmoIJeZxl3DbCtZ1HMNvhUMkhvEJFj4M+J
9NU2sLJiLvyvetgavrq32VH41NlhZTrBjyUUAmHMDCXTURI69u/OB0UOelnVwCJU
AiodYpE3eHZWtzfXczHl52Xvx3eFZsxWup0jfKNogz7/roBEADV6PFDj0XFQjhde
74v7WA7EJUJJIIi8mxspr1LjW7DOY2EeYYaufQ9Mg1pVvYQOO/H+bhh+3SCOWf+T
xOPH8f2z5SWWLKTlDWi40FD3F4UDY1YpOwMWH1/AYAaNXdx8/M3SiAMDn8P5cu4F
Xl8cm2U97IQDEewQhJ84CjA6UnVi6YtEH40sXxrmdHuFRyOqB7yXJYd+C7gzPxaN
ePDRvf85xYvkpxDZ/sAYXtpDkw/nSzWi00dhGsIPk8/J5XB3nzYd4ngWmSDboZwi
ycQ2tduOYtJKOe/5s4sI
=oNcp
-----END PGP SIGNATURE-----
