-----BEGIN PGP SIGNATURE-----
Version: BCPG v1.70

iQIcBAEBCgAGBQJqAZsbAAoJEC31hFfw+NjjXpMQAI36KToUchTOqdSD4pKpqMC+
za2KxHCa2Cq2XmdzytNaEI8O5zz5KHcVWTw44r6GZ/ETQ/nvClgoj9qHjOPxvxnO
CCM3bUbD3c2bpGjCmIgQMJYyF6CNQld6veDhmGOfYrg887C1ASe+WbbyCeNh6gE6
x4ZPJ/tdshGaUpB9D77PLqKskf1+Q0UOOzwCyioUvRy0DrWUN7i+twI9aFAVIgwQ
9BAP39Ib+zyvdSsfERqQ5I8VU5x4o1Ip1ucYGYxr9f4znR0omSrefqIqqTX7XcsP
A0RbaUT62S8bBZ/0QN1jJLl8JVbIwwnXxUvTbhtkJI+aPDrxmdQxmf/nS8Rg66xY
Pq+DizoRvAvB2b3IRB/kio/KfqJFuC8bfXCthdrDNKeXM7PF54p6Yd2d3/kuCw3X
1n2NZ69Sw5+09sq1OC420dEm/eS7xrUdiAexdH3UUisjNmfIpbNLUSTo9Isq++xn
XwpKxT3kMh5/3TY/QpDjyaVWCVOLOTs+qdPRkUE50+YPcee5eOeBmlO0s2wNYPm+
xbEtYiXd3lrSPnfz10OlSqQ/DZCSRs7OaAVZbkzerc7NUam90fSnkeNLfUXWgJ61
b8cDATlEYP6FUNTDg0h/0CRhmawbgKPoPXAqgaOcMyQ5Pz9Y8Kh2R5IEUFGHTCiw
5uYk0cNdwLeBgAA/evil
=jMZJ
-----END PGP SIGNATURE-----
