-----BEGIN PGP SIGNATURE-----
Version: BCPG v1.70

iQIcBAEBCgAGBQJqAuE2AAoJEC31hFfw+Njj8V0P/iR2Jloy4PvApbpjR4mLTyZC
yKgW/1rwe3ypZEGRuomI+aDdwipz3kU5JzBptX9+JqUYKEdEVKOG3AzXltP1tCpb
8Y8tqqdHwz+kPJScdRsPLVbNmq/jHDeZvCZfvjX/RkHGtXldOAx58U+41olreG/S
YANrzx09pQzvmQ8ROenHeJLNjzpaoY4k5SifmyyfAKrtALOv8wm+oghRkg3HG8ar
n3UJiHR0aSp0o2MDYHcLlHUVi7x/q8cle1X1+AJBLvvw91xPMYJTClO2u+W/TpYq
zjZriNgl5qI/49DKGltSmL07Qvb3f/9eUAS8PwY7snIVuFT8NGDEUPU42ZuceEGi
7EBPCa3DlG0FpGcO+K18+DFgoqXgLBllmNNLHSOkyYitNw8LB+zYDuxYfrU2GNC8
dUZkbDdxZRKGZL/Fy5LESz/Wci2Gl7ePaGpPdl5r477Aoe3X0LPeu+TsGQ/p7IKl
TmifCEgI0b3qxI/3KE4JRrLu/0/+BNx7Crq69dlrgLZcxYqAkX3IrGY9Ggin2SrL
q4sqLMXaBN4YkEPo3thckqgz1Fu5iW0SNjZ4MUR6Nt2riV5qkf6Hryu96G3HF3sy
xnqAnaqxgLHb8AjIctF77cUskIw4oP6MnsnqCZag/W5ZaH6/8YRjehnjmP8A5FZF
JF/ynnGYBWuBefLQq6cY
=SwCN
-----END PGP SIGNATURE-----
