-----BEGIN PGP SIGNATURE-----
Version: BCPG v1.70

iQIcBAEBCgAGBQJqq75FAAoJEEYxW5yCr7ufMXAP+wUwMYouLm9/9OzXj9fzAt2v
jtW+P0scsj08vCgoay+It/4os1kpxxgb1pyjDS4pj/fAOvd973gfdjHOv/htxyEm
n9qp8JXL0eb5u18WwdTjYoEEbzBet6Ul/0RGvwAE1Ndh95qUfe21JgE/z7NjY6oc
iZsbNzWKvOOuKEiroA7tcgnG5MaZxgqr0Ml1JNvcclnh1O32HLo3WjG/5bF8jSeM
45kf7Wa275Hd6P6VixrloXT4r8nNeejOWh4OadBNp60QH/40ImrToG+TJImB+YRi
xkIvm9G9gIEu0b7dVzTZODI/nIb9CPrmCnlIEI7BE+qNREKLd8lC81T6D2O5Q5xb
j5RcpIsSIR5J2+4VhAxbQnSsNVEk+s/QcuJMhObsrKvdAjt1ph7SorGQiBjW9Bf5
LOsQaJJeMTWgV/sg4085wZQ4+NFFxd1/WtnbsWhtg641bPtq54KWWFQkkiFnUKdF
SAXvHvViA9+6T0lE3HC10WGdgT10k/PUatvnhhHvAxpmE+heNJh3x8SM016o3HjN
fiZKrX71MVmsk2KI+ibK/TaT2JvYMWdS0ATj5Aw5xIXt0fkNuirKrn5OOWNRFveB
RlDylOzzL+V0IiNsSKcdor5n7csKl7yhFd8A5Sgbs6JZ0P9PIuGHDXawqYqRHfpi
dS0sWzB9AcCpm+uFQPPt
=oP7/
-----END PGP SIGNATURE-----
