-----BEGIN PGP SIGNATURE-----
Version: BCPG v1.70

iQIcBAEBCgAGBQJqfDP9AAoJEEYxW5yCr7ufCmIP/jeMdD8sOQ9y0ca/aSU9COOp
F89prQ326K6wLdhp+0TZ2SxKMEi/ez8umUFkBXOree4+Kuuuk7ESleyLqT62Djvv
DOAomUR54f61jrpZT59MTb6JeeXeZIjiLHSCpdesVzLKIqVlZc7LHMDXbxIi8Ijt
xpAvTcAjDWpTYo+SXl5j+XyBRwwBGuWJAy5EDjDfGmPsH+bVrTdfEncaJ228jbmP
KE/Ng/XPgX993Pu6UvdCqKkwd8XQtfx42ueCxw+TR7+XtUt1EISRF3g14jG4+VnX
8jQZ5QC75lpRnxdPau8gM66HMVB3RhtjHurcfAfrnBQgRcHxemVY9oi/GCRlE9yx
+hyClNe9KexFcLWIfnk3mZB0sgbrf6fL0z5WibtgWY7RJnqFv2G5yLa9MvxpmbPg
a/Sw/mEH5c/qYdpTi3tq82aGRc3/s9NNK0gmbE+UYV7yD4gHYvVg7XikY7SX11ZO
/UCx1ZZRCBuQk/C4aWDI5TYkBo2e5jWjCac0Jd6V5FuYVnw0svB9TvT8bg2T1q5P
RwkHRz/n2gaamjIiP+0Mn3/jS0ST8Kq/rkyF+OZW7sahZDwWbBjHxj5bVKs5ohR2
rCnLqGMdJcly4Mg4v3q+57hnKdbLOpn5jnZoNcYgQV6aVmT3sT83mMmpFWjQ6RaO
/2np3exCn/1DLQN0Ytlj
=y5S9
-----END PGP SIGNATURE-----
