-----BEGIN PGP SIGNATURE-----
Version: BCPG v1.70

iQIcBAEBCgAGBQJqhB9VAAoJEEYxW5yCr7uf9SIQALvcdy2Jd2BIycJcsnrWR5Tz
Cg6qoRQFupT2Pw9Ix+vsbfw8Hyqc2F97yiN9ODzLFrOfthyHU3P7w7voiQr7lctv
K31SM8+GFp346dS4gl8efJmUdBPhjXcK5VZCHvynF4HdqvbyCX69ObOrQcDjyEnF
F5Sgxwp59x6rNsIc3OZJlKfi+snP/wtIdkEhgu1HIm2jgC0p37RV9PqSFD8zMT45
N5NDk2Y9oxiL8NlGXuqVu3UKxGdwBAkDnQuUgEqoDsZxxCfRds9M3aX6Cqd+vlyi
YPFM3UG98+tR6HND+1wtWwWJkjoevXF0zBe1tmRpA8Ri80zl3XD19kB0XIPrYp7i
yuhyWIeOLEmTVc+pxAB2LDlD96A4GyuRGRA9RrNfy+kMCYhIgHxreaxrZF1qf/Jh
wdT2EHCl7Xcp+ICXPxPMcwDvsC+86IW3+8Cpq3h8XH3JfZuJMpgPDaDem3qt9U57
3OHIDxneQ3D2KyA9gSsn6WAF1jV2nMkLBESlB2mR8mnKcqKZDXTEVXCd0ja6Rk8b
XvVvVEBEIPVv2J5dIX0PXfUx9G6cUXZVDjSBl0lQA3RZLi+4jLdhfB3gI2alwLHC
HfywAsD7PBG59A6g0qvV0KgeKwTfXhRahrgIswK01dssvwNyxA00VbUGeMHa8J9z
83Ea5xLHUom+VW0oWXek
=g9+k
-----END PGP SIGNATURE-----
