-----BEGIN PGP SIGNATURE-----
Version: BCPG v1.70

iQIcBAEBCgAGBQJqrPY6AAoJEEYxW5yCr7uf3nAQAInjTJS9EWCe+FlSLo9PMYYI
OaFz407ecgbCB6rFCp6z/8pJKe6rw/JtiICUqbHLh35AabDRqStnrYgiQM5NnBSz
mQeAiqv/FItJVOIK8cRuRLuPeIYmY2AAv5Oc7h2CDwdmMg4WRfgQxyKE3Sn4C1F9
/zucNmpDbHsLk6MAq1xqzLfFZ+uWcwk0EKUy8T630LLias1Gn9GK8M7BX2YTEZKY
mpoXBVAPW153lXYpVCnIlfy2m9BQqcikiR8fD46L6qxGTxsUP8aKDcraIOAvOHYK
IX66z1rtILBEJATgEqelu+MIpG8Jh79+iOWSDhOiwJsYtVxIoW8kdQcFk5zDTJ4i
VrLg76G1R4BELGBIr7G5oESA40j6xJBjzwpUTYCkSwvrOIsmnjY36zGEtIFEXpM6
9+BiwZKCffsrCK1IvV7NqVQKIZ+fhOX465BeXeyXdTGkorYnN7rfoiuriR4ieyf6
cB8phBCcSWy5fMmVCVLcQS7t+Ybi4oyRhIlCA7pKtYlExp0HVSnhLXu1ODXMzPbM
3HHawhhjj8eMUN3ZRwDu3prW052iB2sCTYN9GnOu89vZriNnk56uvW2CWV+EUO41
cKkeDlc8JAhXSTwuIz5LeHXmBgCeefXRkZJFcGrhggg2fbCEj6PWaUaBxQ3KJNZM
akJBvI90mGhcIh9QWoUK
=yMnY
-----END PGP SIGNATURE-----
