-----BEGIN PGP SIGNATURE-----
Version: BCPG v1.70

iQIcBAEBCgAGBQJqw5rdAAoJEEYxW5yCr7ufKb0P/0BHjX60SC9sB89yyfQRTkTm
MrbtU+64Zoi6uimykHyv+jWOJT/1Qw56/oNGeb3XFlT/JCA+eAYco8rhORAh10JG
oDPlslB5O5Tf1bKoVFj/QDa6Mgag9nCLRloCYPUAfQ8OBUwny8oiDb7ooIyLCLHQ
UvH21EsoampYzvRRH81S+oDcTGbhge+zxcWEm+yKhTiOZx0ktuTNi/iu4Knk7gPK
vgG1DpS3t21augsPLsoqj/e588hAILBufX4Fr5pjAvbG5cwazstJUs+3/IQ/H1YH
V0SqU8Rrtyqkd4cBD6LeeiPm5YltRgI2AuXYeK8OwcdzJQFqldJvHL3+0YFHpNkh
sEanDeuYx9bMMVxPMxEyeEYirz+8N21BH4fPg4R6bU9JNmytiQMV9JWGCDEBX48s
9a2vHa24xgHN+SY8E7ubYwGHopDnctz4ZDUU2/SSZIZq95Wupv3s0Q25MHA8xoUp
8PgUYQnDVf2W7Gwa8FTvEFkEKB6Bz5nhNpUH3xUcHe3gayyGll5r6rwYuHFoNH45
YKoWf4l8pte30MaN28vM12YbGZhs23olBssGE//zfYbQa4wCIlRYFMd3SRd4C33K
DIk+9ac/d741Sr7FzrHK2NuDWnJeQPTpqjWsC2GDXOYy5p0jJYi4GZ1WDDoABCZA
4QRVh9Dmcq8KRF6XvQBi
=yWFc
-----END PGP SIGNATURE-----
