-----BEGIN PGP SIGNATURE-----
Version: BCPG v1.70

iQIcBAEBCgAGBQJqxMGvAAoJEEYxW5yCr7ufRkIP/3g3txy7unaamgAc09xYoLZW
BT9rYA73SiD5tUfje1fms7clf3FEuLJFd4Lz7/B90itU+0utEFhx+Vc1TPkyw2Ii
hRGT/SuMYNG30lYIXiIy5QsBflT3JrM+U2fyxC1fcnkqEiscjvL9VOZYi+c7WSgc
6V+JUneaY7Ld6MH8Qu/1MA2vYj4DTaAfhnuJWZO3AwmVY1acPtDPtZrBNooOtcAd
WwJ3nrn3p0F7OxL/LfQfrzA6dP9HawUOGnPhRxAGmdh+0/1pmOR8IsGpo5h2FMi1
Age05ER3AvTV+1r4oke3tXuUDNCg+1bhi2/WVBoxK7a/Mg+RgW1NQhHTp9+7Eb05
mg11QPv1coxSLhTxa8H14u5mAIvgKTlRpL0hGizs7Y85+Gr6j/KHfGTSM/vW5Cf6
2XQCBc8Lnf1NXzaYZ5Z/jOf2HBPoqJRQA2TbBhlcY1Nh2Aw3mQz2L12UQX10LTky
9tv9F4ExHX2rtMEiWAwnkFYuI/3BkUtojRixc9+aMSFjWVqhoI5hhoPM7gWAyDb1
aIczxUtFATi3q5yvZthBcvv9leJsOwEXg6x2JdCwVRG98TqugoXpMmyFsB+SJY50
wzWe8TPYV4+U84j6D1FLpGMaAATBGUPSsbw1gUCskv9HJ6iWgPsFxToxy8B3PQMA
/r4id2nYcxW2zrk7hdlG
=fCZd
-----END PGP SIGNATURE-----
