-----BEGIN PGP SIGNATURE-----
Version: BCPG v1.70

iQIcBAEBCgAGBQJqJosKAAoJEC31hFfw+NjjEL0P/2WFtUAJRl0KXg2Gusyq3vAB
sbU9AlP50bn2ma/sqw14PA0RdaoTMhzewGzZyyhyis0AWAWGq0fbAOczP/oJl/u3
ExCnTCZTTx9FHxlLlVMU0//k9mn1C+W73igaMxWqyn9x/q8KiyGJ2yB686dp4dSn
i5t9VqzTAMCyU6jI4yH4YiaONsZvLiOf5uP3m7HrwXLGY2Pnwk/HKnUUK/etnTkQ
Cul71pHY4j1qIb9z7WG5/vhlR2xBBxEC57Ch7ztXwfLUeK7VQudNnj4v4qGzr1A8
OQEh0OKqTWPpTneOr7h9nJnxZK239fTrAuD2Jz8ONZ9tFPOOqs2Bv20LkKr0QFV+
VIwz1OAaGqu0q/gTn2JIYro4zGahG4oYVPhH1qsyNYIdwy/AG9MDciHW0sjHOufA
19uZLW7BrYZ5AaPlPDKPzz49tx6qc2ta0sTvujF8k3hSXkVuQZQONxNLMWmCo85x
R30DL68mfFTvAi6xekzTVXVfy9eP8WnwLUyZmzCvoji4Y0WHpX/1yVSZU4ZOBO/t
G4PKkjK2UiMSc8F3aIQm9PnJ8jm85Xpmwipp167B+dnmV492ogTwZfbVuN0SalYq
RW/xVJj8Z3LgUicPjo9QQAr09+xTsMs8/292Z8Ut5pEynpz7Ze/OruK0AzdQ0D9C
einxWJtzjYMpZeCUUJzQ
=XXWu
-----END PGP SIGNATURE-----
